X:1
T:A Beautiful Home
T:Alonzo Judson Abbey, 1879
T:A Beautiful Home
T:Public Domain
T:Public Domain
T:Public Domain
C:Alonzo Judson Abbey, 1879
Z:Public Domain
%%score ( 1 2 ) 3
L:1/8
M:6/8
K:G
V:1 treble 
V:2 treble 
V:3 bass 
V:1
 G/[GA]/ | [GB][GB][GB] [Bd]2 [ce] | [Bd]3 .[GB].[GB][GB] | [FA]2 [FA] [EG]2 [FA] | %4
w: 1.~There’s a|ti- ful home for thee,|bro- ther, A home,|a home for thee;|
w: 2.~There’s a|ti- ful rest for thee,|bro- ther, A rest,|a crown for thee;|
w: 3.~There’s a|ti- ful crown for thee,|bro- ther, A crown,|a crown for thee;|
w: 4.~There’s a|ti- ful robe for thee,|bro- ther, A robe,|a robe for thee;|
w: 5.~Wi- lt|that beau- ti- ful home,|bro- ther, That home,|that home a- bove;|
 [GB]3- [GB]2 G/[GA]/ | ([GB][GB])[GB] [Bd]2 [ce] | [Bd]2 [Bd] [GB]2 [DB] | %7
w: In * that land|bliss * where plea- sure|is, There, bro- ther’s|
w: In * those mansions|bove * where all is|love, There, bro- ther’s|
w: When * the battle~is|and * the vic- tory|won, Our Sav- ior|
w: A * ~ robe|white, * so pure and|bright, A glor- i-|
w: In * that land|light, * where all is|bright, That la- nd|
 [CA][DB][Ec] [DB]2 [CA] | [B,G]3- [B,G]2 ||"^Refrain" G | [FA][FA][FA] [FA]2 [FA] | %11
w: a home for thee. A|beau- *|ti-|home for thee, bro- ther,|
w: a rest for thee. A|beau- *|ti-|rest for thee, bro- ther,|
w: will give it~to thee. A|beau- *|ti-|crown for thee, bro- ther,|
w: ous robe for thee. A|beau- *|ti-|robe for thee, bro- ther,|
w: where all is love. Wilt|seek *|that|ti- ful home, bro- ther,|
 [GB]3 .[GB].[GB][GB][FA][FA][FA] [Fd]2 [Fc] | [GB]3- [GB]2 [GB]/[GB]/ | ([GB][GB])[GB] (BA)[DG] | %14
w: A beau- ti- ful home for thee; In that|land * of bliss|where * plea- sure * is,|
w: A beau- ti- ful rest for thee; In those|mansions * a- bove|where * all is * love,|
w: A beau- ti- ful crown for thee; When the|battle~is * done, and|the * vic- tory * won,|
w: A beau- ti- ful robe for thee; A ~|robe * of white,|so * pure and * bright,|
w: That beau- ti- ful home a- bove; In that|land * of light,|where * all is * bright,|
 [EG]2 [CE] [EG]2 [CE] | [B,D][B,D][B,G] [DB]2 [FA] | G3- G2 |] %17
w: bro- ther’s a home|for thee. * * *||
w: bro- ther’s a rest|for thee. * * *||
w: Sav- ior will give|it~to thee. * * *||
w: glor- i- ous robe|for thee. * * *||
w: la- nd where all|is love. * * *||
V:2
 G/ x/ | x6 | x6 | x6 | x5 G/ x/ | x6 | x6 | x6 | x5 || G | x6 | x12 | x6 | x3 D2 x | x6 | x6 | %16
w: beau-||||of|||||ful||||There,|||
w: beau-||||a-|||||ful||||There,|||
w: beau-||||done,|||||ful||||Our|||
w: beau-||||of|||||ful||||A|||
w: seek||||of|||||beau-||||That|||
 G3- G2 |] %17
w: |
w: |
w: |
w: |
w: |
V:3
 G,/G,/ | G,G,G, G,2 G, | G,3 .G,.G,G, | D,2 D, D,2 D, | G,3- G,2 G,/G,/ | (G,G,)G, G,2 G, | %6
 G,2 G, G,2 G, | C,C,C, D,2 D, | G,,3- G,,2 || [G,B,] | [D,D][D,D][D,D] [D,D]2 [D,D] | %11
 [G,D]3 .[G,D].[G,D][G,D][D,D][D,D][D,D] [D,A,]2 [D,D] | [G,D]3- [G,D]2 [G,D]/[G,D]/ | %13
 ([G,D][G,D])[G,D] ([G,,D][A,,C])[B,,B,] | [C,G,]2 [C,G,] [C,C]2 [C,G,] | %15
 [D,G,][D,G,][D,G,] [D,G,]2 [D,C] | [G,,B,]3- [G,,B,]2 |] %17

